icon-themes/elementary/cmd/sc_strikeout.svg

<?xml version="1.0" encoding="UTF-8" standalone="no"?>
<svg
   xmlns:dc="http://purl.org/dc/elements/1.1/"
   xmlns:cc="http://creativecommons.org/ns#"
   xmlns:rdf="http://www.w3.org/1999/02/22-rdf-syntax-ns#"
   xmlns:svg="http://www.w3.org/2000/svg"
   xmlns="http://www.w3.org/2000/svg"
   xmlns:sodipodi="http://sodipodi.sourceforge.net/DTD/sodipodi-0.dtd"
   xmlns:inkscape="http://www.inkscape.org/namespaces/inkscape"
   viewBox="0 0 16 16"
   id="svg2"
   version="1.1"
   inkscape:version="0.91 r13725"
   sodipodi:docname="sc_strikeout.svg"><metadata
   id="metadata10">
  <rdf:RDF>
    <cc:Work
       rdf:about="">
      <dc:format>image/svg+xml</dc:format>
      <dc:type
         rdf:resource="http://purl.org/dc/dcmitype/StillImage" />
    </cc:Work>
  </rdf:RDF>
</metadata>
<defs
   id="defs8" />
<sodipodi:namedview
   pagecolor="#ffffff"
   bordercolor="#666666"
   borderopacity="1"
   objecttolerance="10"
   gridtolerance="10"
   guidetolerance="10"
   inkscape:pageopacity="0"
   inkscape:pageshadow="2"
   inkscape:window-width="2560"
   inkscape:window-height="1377"
   id="namedview6"
   showgrid="true"
   inkscape:zoom="41.7193"
   inkscape:cx="14.756739"
   inkscape:cy="5.9658596"
   inkscape:window-x="0"
   inkscape:window-y="34"
   inkscape:window-maximized="1"
   inkscape:current-layer="svg2">
  <inkscape:grid
     type="xygrid"
     id="grid4162" />
</sodipodi:namedview>

     /&gt;
 <path
   style="color:#000000;font-style:normal;font-variant:normal;font-weight:normal;font-stretch:normal;font-size:17.54421616px;line-height:125%;font-family:sans-serif;text-indent:0;text-align:start;text-decoration:none;text-decoration-line:none;text-decoration-style:solid;text-decoration-color:#000000;letter-spacing:0px;word-spacing:0px;text-transform:none;direction:ltr;block-progression:tb;writing-mode:lr-tb;baseline-shift:baseline;text-anchor:start;white-space:normal;clip-rule:nonzero;display:inline;overflow:visible;visibility:visible;opacity:1;isolation:auto;mix-blend-mode:normal;color-interpolation:sRGB;color-interpolation-filters:linearRGB;solid-color:#000000;solid-opacity:1;fill:#565656;fill-opacity:1;fill-rule:nonzero;stroke:none;stroke-width:0.94709319;stroke-linecap:butt;stroke-linejoin:round;stroke-miterlimit:4;stroke-dasharray:none;stroke-dashoffset:0;stroke-opacity:1;color-rendering:auto;image-rendering:auto;shape-rendering:auto;text-rendering:auto;enable-background:accumulate"
   d="m 8.298828,0.99414062 c -1.381439,0 -2.528223,0.34239488 -3.375,1.07421878 a 0.46715598,0.48012064 0 0 0 -0.00195,0.00195 c -0.840374,0.7318336 -1.271484,1.7843632 -1.271484,3.015625 0,0.6584858 0.124058,1.2616401 0.388671,1.7851563 C 4.062185,6.9168398 4.096492,6.9552293 4.121094,7 L 5.236328,7 C 5.096638,6.8224001 4.974604,6.6344747 4.871094,6.4296875 4.685038,6.061588 4.585937,5.6201326 4.585938,5.0859375 c 0,-1.0144839 0.304728,-1.7259664 0.939453,-2.2792969 0.640433,-0.5534921 1.54099,-0.8515625 2.773437,-0.8515625 0.605327,0 1.177447,0.07149 1.716797,0.2167969 0.421794,0.1125434 0.877023,0.294514 1.332031,0.4785156 L 10.857422,3.8613281 C 10.400814,3.682969 9.943126,3.5022569 9.595703,3.4140625 l -0.00195,0 C 9.13162,3.2954896 8.671064,3.234375 8.214844,3.234375 c -0.568281,0 -1.07367,0.1396623 -1.447266,0.4746094 C 6.409245,4.0302481 6.210937,4.5039224 6.210938,5 c 0,0.3115358 0.073532,0.6151222 0.228515,0.875 a 0.46715598,0.48012064 0 0 0 0.00391,0.00586 C 6.595251,6.1273462 6.81098,6.3345629 7.076172,6.5273438 a 0.46715598,0.48012064 0 0 0 0.00977,0.00781 C 7.25965,6.6541782 7.545989,6.8142801 7.902344,7 L 9.984375,7 C 9.744018,6.8621203 9.488463,6.7261966 9.210938,6.5898438 8.347766,6.1663124 7.788172,5.8625945 7.611328,5.7421875 7.420094,5.6022933 7.298456,5.4705714 7.236328,5.3710938 7.177798,5.2723727 7.144531,5.1624074 7.144531,5 c 0,-0.2681644 0.067071,-0.4148667 0.238281,-0.5683594 0.155941,-0.1398093 0.408838,-0.2382813 0.832032,-0.2382812 0.376891,0 0.762721,0.049277 1.15625,0.1503906 a 0.46715598,0.48012064 0 0 0 0,0.00195 c 0.398369,0.1010268 0.92838,0.2862819 1.574218,0.5585938 a 0.46715598,0.48012064 0 0 0 0.607422,-0.2597657 l 0.845704,-2.0917968 a 0.46715598,0.48012064 0 0 0 -0.246094,-0.625 C 11.497108,1.63572 10.865958,1.4075555 10.253906,1.2441406 l -0.002,0 C 9.631344,1.0771292 8.97725,0.99414063 8.298828,0.99414062 Z M 6.289062,9 C 6.476487,9.102559 6.644697,9.2048619 6.859375,9.3085938 7.655641,9.6978407 8.190464,9.989519 8.394531,10.130859 a 0.46715598,0.48012064 0 0 0 0.00391,0.0039 c 0.229752,0.155744 0.383682,0.307063 0.474609,0.439453 a 0.46715598,0.48012064 0 0 0 0.00391,0.0059 c 0.07844,0.110845 0.115235,0.217311 0.115235,0.376953 0,0.331505 -0.078018,0.477619 -0.269532,0.617188 a 0.46715598,0.48012064 0 0 0 -0.00391,0.002 c -0.191035,0.141799 -0.527899,0.246094 -1.042969,0.246094 -0.429379,0 -0.920952,-0.06869 -1.470703,-0.216797 C 5.667465,11.45921 4.982986,11.197597 4.164062,10.822266 a 0.46715598,0.48012064 0 0 0 -0.658203,0.4375 l 0,2.501953 a 0.46715598,0.48012064 0 0 0 0.261719,0.43164 c 1.08576,0.545547 2.326362,0.8125 3.703125,0.8125 1.499673,0 2.732894,-0.347362 3.638672,-1.09375 l 0.002,-0.002 c 0.907208,-0.744414 1.382813,-1.82307 1.382813,-3.083984 0,-0.669277 -0.135095,-1.285025 -0.400391,-1.826172 l -1.105469,0 c 0.0069,0.00889 0.01879,0.018513 0.02539,0.027344 a 0.46715598,0.48012064 0 0 0 0.002,0.00195 c 0.360711,0.4780352 0.542969,1.0539931 0.542969,1.7968751 0,1.030789 -0.328749,1.760359 -1.03125,2.335937 -0.693916,0.572547 -1.695646,0.884766 -3.056641,0.884766 -1.159371,0 -2.140107,-0.256429 -3.029297,-0.658203 l 0,-1.4375 c 0.541175,0.22511 1.097919,0.465737 1.525391,0.582031 a 0.46715598,0.48012064 0 0 0 0.00195,0 c 0.610724,0.164536 1.178735,0.25 1.707031,0.25 0.632512,0 1.170963,-0.119699 1.587891,-0.427734 0,0 0,-0.002 0,-0.002 0.427224,-0.312163 0.662109,-0.837015 0.662109,-1.396485 0,-0.336778 -0.100709,-0.666883 -0.291015,-0.9375 C 9.456217,9.7602602 9.213262,9.5359621 8.916016,9.3339844 l -0.00391,-0.00195 C 8.774628,9.2369702 8.576737,9.1234892 8.351562,9 l -2.0625,0 z"
   id="text4995"
   inkscape:connector-curvature="0" />
<path
   inkscape:connector-curvature="0"
   id="path4252"
   d="m 1.4929285,8 0,0 0,0 c 4.338048,0 8.6760955,0 13.0141435,0 l 0,0 -13.0141435,0 z"
   style="font-style:normal;font-variant:normal;font-weight:bold;font-stretch:normal;font-size:54.8693924px;line-height:125%;font-family:'Bitstream Vera Sans';text-align:start;writing-mode:lr-tb;text-anchor:start;opacity:1;fill:none;fill-opacity:1;stroke:#565656;stroke-width:1.00000012;stroke-linecap:round;stroke-linejoin:round;stroke-miterlimit:4;stroke-dasharray:none;stroke-opacity:1" />
<path
   style="font-style:normal;font-variant:normal;font-weight:bold;font-stretch:normal;font-size:medium;line-height:125%;font-family:'Noto Sans';-inkscape-font-specification:'Noto Sans Bold';letter-spacing:0px;word-spacing:0px;fill:#8c8c8c;fill-opacity:1;stroke:none;stroke-width:0.94709319;stroke-linecap:butt;stroke-linejoin:round;stroke-miterlimit:4;stroke-dasharray:none;stroke-opacity:1"
   d="m 8.298828,1.9550781 c -1.232447,0 -2.133004,0.2980704 -2.773437,0.8515625 -0.634725,0.5533305 -0.939453,1.264813 -0.939453,2.2792969 -2e-6,0.5341951 0.0991,0.9756505 0.285156,1.34375 C 4.974196,6.6336683 5.095577,6.8230834 5.234375,7 L 7.904297,7 C 7.547746,6.8139001 7.259684,6.654202 7.085938,6.5351562 a 0.46715598,0.48012064 0 0 1 -0.00977,-0.00781 C 6.811014,6.3345604 6.595251,6.1273462 6.443359,5.8808594 A 0.46715598,0.48012064 0 0 1 6.439453,5.875 C 6.28447,5.6151222 6.210938,5.3115358 6.210938,5 c 0,-0.4960776 0.198307,-0.9697519 0.55664,-1.2910156 C 7.141174,3.3740373 7.646563,3.234375 8.214844,3.234375 c 0.45622,0 0.916776,0.061115 1.378906,0.1796875 l 0.00195,0 c 0.347423,0.088194 0.805111,0.2689065 1.261719,0.4472656 L 11.347656,2.6503906 C 10.892648,2.466389 10.437419,2.2844184 10.015625,2.171875 9.476275,2.0265685 8.904155,1.9550781 8.298828,1.9550781 Z M 8.351562,9 c 0.225043,0.1233986 0.423066,0.2369702 0.560547,0.3320312 l 0.00391,0.00195 c 0.297246,0.2019777 0.540201,0.426276 0.71875,0.6855466 0.190306,0.270617 0.291015,0.600722 0.291015,0.9375 0,0.55947 -0.234885,1.084322 -0.662109,1.396485 l 0,0.002 c -0.416928,0.308035 -0.955379,0.427734 -1.587891,0.427734 -0.528296,0 -1.096307,-0.08546 -1.707031,-0.25 a 0.46715598,0.48012064 0 0 0 -0.00195,0 C 5.539325,12.416909 4.982581,12.176282 4.441406,11.951172 l 0,1.4375 c 0.88919,0.401774 1.869926,0.658203 3.029297,0.658203 1.360995,0 2.362725,-0.312219 3.056641,-0.884766 0.702501,-0.575578 1.03125,-1.305148 1.03125,-2.335937 0,-0.742882 -0.182258,-1.3188399 -0.542969,-1.7968751 a 0.46715598,0.48012064 0 0 0 -0.002,-0.00195 C 11.007077,9.0185126 10.99515,9.0088896 10.988281,9 L 8.351562,9 Z"
   id="path4228"
   inkscape:connector-curvature="0" />
</svg>

<?xml version="1.0" encoding="UTF-8" standalone="no"?>
<svg
   xmlns:dc="http://purl.org/dc/elements/1.1/"
   xmlns:cc="http://creativecommons.org/ns#"
   xmlns:rdf="http://www.w3.org/1999/02/22-rdf-syntax-ns#"
   xmlns:svg="http://www.w3.org/2000/svg"
   xmlns="http://www.w3.org/2000/svg"
   xmlns:sodipodi="http://sodipodi.sourceforge.net/DTD/sodipodi-0.dtd"
   xmlns:inkscape="http://www.inkscape.org/namespaces/inkscape"
   viewBox="0 0 16 16"
   id="svg2"
   version="1.1"
   inkscape:version="0.91 r13725"
   sodipodi:docname="sc_strikeout.svg"><metadata
   id="metadata10">
  <rdf:RDF>
    <cc:Work
       rdf:about="">
      <dc:format>image/svg+xml</dc:format>
      <dc:type
         rdf:resource="http://purl.org/dc/dcmitype/StillImage" />
    </cc:Work>
  </rdf:RDF>
</metadata>
<defs
   id="defs8" />
<sodipodi:namedview
   pagecolor="#ffffff"
   bordercolor="#666666"
   borderopacity="1"
   objecttolerance="10"
   gridtolerance="10"
   guidetolerance="10"
   inkscape:pageopacity="0"
   inkscape:pageshadow="2"
   inkscape:window-width="2560"
   inkscape:window-height="1375"
   id="namedview6"
   showgrid="true"
   inkscape:zoom="59"
   inkscape:cx="10.866529"
   inkscape:cy="6.5493286"
   inkscape:window-x="0"
   inkscape:window-y="36"
   inkscape:window-maximized="1"
   inkscape:current-layer="svg2">
  <inkscape:grid
     type="xygrid"
     id="grid4162" />
</sodipodi:namedview>


     /&gt;
 <path
   style="color:#000000;font-style:normal;font-variant:normal;font-weight:normal;font-stretch:normal;font-size:17.54421616px;line-height:125%;font-family:sans-serif;text-indent:0;text-align:start;text-decoration:none;text-decoration-line:none;text-decoration-style:solid;text-decoration-color:#000000;letter-spacing:0px;word-spacing:0px;text-transform:none;direction:ltr;block-progression:tb;writing-mode:lr-tb;baseline-shift:baseline;text-anchor:start;white-space:normal;clip-rule:nonzero;display:inline;overflow:visible;visibility:visible;opacity:1;isolation:auto;mix-blend-mode:normal;color-interpolation:sRGB;color-interpolation-filters:linearRGB;solid-color:#000000;solid-opacity:1;fill:#565656;fill-opacity:1;fill-rule:nonzero;stroke:none;stroke-width:0.94709319;stroke-linecap:butt;stroke-linejoin:round;stroke-miterlimit:4;stroke-dasharray:none;stroke-dashoffset:0;stroke-opacity:1;color-rendering:auto;image-rendering:auto;shape-rendering:auto;text-rendering:auto;enable-background:accumulate"
   d="M 8.2988281 0.98828125 C 6.9173891 0.98828125 5.7706051 1.3306761 4.9238281 2.0625 A 0.46715598 0.48012064 0 0 0 4.921875 2.0644531 C 4.081501 2.7962867 3.6503906 3.8488163 3.6503906 5.0800781 C 3.6503906 5.4009378 3.6813685 5.7082273 3.7421875 6 L 4.7226562 6 C 4.6417301 5.725133 4.5859368 5.428453 4.5859375 5.0800781 C 4.5859375 4.0655942 4.8906656 3.3541117 5.5253906 2.8007812 C 6.1658236 2.2472891 7.0663811 1.9492188 8.2988281 1.9492188 C 8.9041551 1.9492188 9.476275 2.0207087 10.015625 2.1660156 C 10.437419 2.278559 10.892648 2.4605297 11.347656 2.6445312 L 10.857422 3.8554688 C 10.400814 3.6771096 9.9431261 3.4963975 9.5957031 3.4082031 L 9.59375 3.4082031 C 9.131617 3.2896302 8.6710638 3.2285156 8.2148438 3.2285156 C 7.6465628 3.2285156 7.1411741 3.3681779 6.7675781 3.703125 C 6.4092451 4.0243887 6.2109365 4.498063 6.2109375 4.9941406 C 6.2109375 5.3056764 6.2844701 5.6092628 6.4394531 5.8691406 A 0.46715598 0.48012064 0 0 0 6.4433594 5.875 C 6.4709945 5.9198467 6.5111935 5.9576037 6.5429688 6 L 8.109375 6 C 7.982535 5.9289075 7.666378 5.7738097 7.6113281 5.7363281 C 7.4200941 5.5964339 7.2984561 5.464712 7.2363281 5.3652344 C 7.1777981 5.2665133 7.1445312 5.156548 7.1445312 4.9941406 C 7.1445312 4.7259762 7.2116025 4.579274 7.3828125 4.4257812 C 7.5387535 4.285972 7.7916497 4.1874999 8.2148438 4.1875 C 8.5917348 4.1875 8.9775647 4.236777 9.3710938 4.3378906 A 0.46715598 0.48012064 0 0 0 9.3710938 4.3398438 C 9.7694628 4.4408705 10.299475 4.6261256 10.945312 4.8984375 A 0.46715598 0.48012064 0 0 0 11.552734 4.6386719 L 12.398438 2.546875 A 0.46715598 0.48012064 0 0 0 12.152344 1.921875 C 11.497108 1.6298637 10.865958 1.4016961 10.253906 1.2382812 L 10.251953 1.2382812 C 9.6313911 1.0712698 8.9772501 0.98828126 8.2988281 0.98828125 z M 6.2890625 8.9941406 C 6.4764875 9.0966996 6.644697 9.1990025 6.859375 9.3027344 C 7.655641 9.6919813 8.1904643 9.98366 8.3945312 10.125 A 0.46715598 0.48012064 0 0 0 8.3984375 10.128906 C 8.6281895 10.28465 8.7821199 10.435969 8.8730469 10.568359 A 0.46715598 0.48012064 0 0 0 8.8769531 10.574219 C 8.9553931 10.685064 8.9921875 10.79153 8.9921875 10.951172 C 8.9921875 11.282677 8.9141702 11.42879 8.7226562 11.568359 A 0.46715598 0.48012064 0 0 0 8.71875 11.570312 C 8.527715 11.712112 8.1908513 11.816406 7.6757812 11.816406 C 7.2464023 11.816406 6.7548291 11.747716 6.2050781 11.599609 C 5.6674621 11.453269 4.9829865 11.191737 4.1640625 10.816406 A 0.46715598 0.48012064 0 0 0 3.5058594 11.253906 L 3.5058594 13.755859 A 0.46715598 0.48012064 0 0 0 3.7675781 14.1875 C 4.8533381 14.733047 6.0939401 15 7.4707031 15 C 8.9703761 15 10.203597 14.652638 11.109375 13.90625 L 11.111328 13.904297 C 12.018536 13.159883 12.494141 12.081227 12.494141 10.820312 C 12.494141 10.151036 12.359046 9.5352876 12.09375 8.9941406 L 10.988281 8.9941406 C 10.995181 9.0030306 11.007072 9.0126534 11.013672 9.0214844 A 0.46715598 0.48012064 0 0 0 11.015625 9.0234375 C 11.376336 9.5014727 11.558594 10.07743 11.558594 10.820312 C 11.558594 11.851102 11.229845 12.580672 10.527344 13.15625 C 9.8334278 13.728797 8.8316981 14.041016 7.4707031 14.041016 C 6.3113321 14.041016 5.3305963 13.784587 4.4414062 13.382812 L 4.4414062 11.945312 C 4.9825812 12.170423 5.5393249 12.41105 5.9667969 12.527344 A 0.46715598 0.48012064 0 0 0 5.96875 12.527344 C 6.579474 12.69188 7.1474852 12.777344 7.6757812 12.777344 C 8.3082932 12.777344 8.8467439 12.657644 9.2636719 12.349609 L 9.2636719 12.347656 C 9.6908959 12.035493 9.9257813 11.510642 9.9257812 10.951172 C 9.9257812 10.614394 9.8250716 10.284289 9.6347656 10.013672 C 9.4561266 9.7544981 9.2132616 9.5301027 8.9160156 9.328125 L 8.9121094 9.3261719 C 8.7746314 9.2311077 8.5767375 9.1176298 8.3515625 8.9941406 L 6.2890625 8.9941406 z "
   id="text4995" />
<path
   inkscape:connector-curvature="0"
   id="path4252"
   d="m 1.4929285,7.4999999 0,0 0,0 c 4.338048,0 8.6760955,0 13.0141435,0 l 0,0 -13.0141435,0 z"
   style="font-style:normal;font-variant:normal;font-weight:bold;font-stretch:normal;font-size:54.8693924px;line-height:125%;font-family:'Bitstream Vera Sans';text-align:start;writing-mode:lr-tb;text-anchor:start;opacity:1;fill:none;fill-opacity:1;stroke:#565656;stroke-width:1.00000012;stroke-linecap:round;stroke-linejoin:round;stroke-miterlimit:4;stroke-dasharray:none;stroke-opacity:1" />
<path
   style="font-style:normal;font-variant:normal;font-weight:bold;font-stretch:normal;font-size:medium;line-height:125%;font-family:'Noto Sans';-inkscape-font-specification:'Noto Sans Bold';letter-spacing:0px;word-spacing:0px;fill:#8c8c8c;fill-opacity:1;stroke:none;stroke-width:0.94709319;stroke-linecap:butt;stroke-linejoin:round;stroke-miterlimit:4;stroke-dasharray:none;stroke-opacity:1"
   d="M 8.2988281 1.9492188 C 7.0663811 1.9492188 6.1658236 2.2472892 5.5253906 2.8007812 C 4.8906656 3.3541117 4.5859375 4.0655942 4.5859375 5.0800781 C 4.5859362 5.428453 4.6417299 5.725133 4.7226562 6 L 6.5429688 6 C 6.5111914 5.9576037 6.4709952 5.9198468 6.4433594 5.875 A 0.46715598 0.48012064 0 0 1 6.4394531 5.8691406 C 6.2844701 5.6092628 6.2109375 5.3056764 6.2109375 4.9941406 C 6.2109375 4.498063 6.4092451 4.0243887 6.7675781 3.703125 C 7.1411741 3.3681779 7.6465628 3.2285156 8.2148438 3.2285156 C 8.6710638 3.2285156 9.13162 3.2896306 9.59375 3.4082031 L 9.5957031 3.4082031 C 9.9431261 3.4963971 10.400814 3.6771097 10.857422 3.8554688 L 11.347656 2.6445312 C 10.892648 2.4605296 10.437419 2.278559 10.015625 2.1660156 C 9.476275 2.0207091 8.9041551 1.9492188 8.2988281 1.9492188 z M 8.3515625 8.9941406 C 8.5766055 9.1175392 8.7746284 9.2311109 8.9121094 9.3261719 L 8.9160156 9.328125 C 9.2132616 9.5301027 9.4562166 9.7544011 9.6347656 10.013672 C 9.8250716 10.284289 9.9257813 10.614394 9.9257812 10.951172 C 9.9257812 11.510642 9.6908959 12.035493 9.2636719 12.347656 L 9.2636719 12.349609 C 8.8467439 12.657644 8.3082932 12.777344 7.6757812 12.777344 C 7.1474852 12.777344 6.579474 12.691884 5.96875 12.527344 A 0.46715598 0.48012064 0 0 0 5.9667969 12.527344 C 5.5393189 12.411006 4.9825812 12.170422 4.4414062 11.945312 L 4.4414062 13.382812 C 5.3305963 13.784586 6.3113321 14.041016 7.4707031 14.041016 C 8.8316981 14.041016 9.8334278 13.728797 10.527344 13.15625 C 11.229845 12.580672 11.558594 11.851101 11.558594 10.820312 C 11.558594 10.077431 11.376336 9.5014727 11.015625 9.0234375 A 0.46715598 0.48012064 0 0 0 11.013672 9.0214844 C 11.007172 9.0126544 10.995151 9.0030306 10.988281 8.9941406 L 8.3515625 8.9941406 z "
   id="path4228" />
</svg>
